X: 2029
T: Yıkıldı Aşk ile
C: Dellalzâde İsmail Efendi
O: Turkey
F: http://compmusic.upf.edu/node/140
N: karcigar--beste--zencir--yikildi_ask_ile--dellalzade_haci_ismail_efendi
N: makam= karcigar
N: form= beste
N: usul= zencir = 120/4
M: 120/4
L: 1/16
K: C _2/4B _3/4e ^3/4f 
Q: 1/4=78
%%MIDI tuningsystem comma53
c4 d4 z2 d2 _7/8e2 ^f2  | _7/8e2 d2 c2 _1/4B2 z2 de ^f2 ed  | \
w:   |   | 
c4 d4 d2 ^f2 _7/8e2 d2  | 
w:   | 
z2 d2 _7/8e2 ^f2 e2 d2 c2 _1/4B2  | \
w:   | 
c3_1/4B A4 A3G B2 c2  | d4 _7/8e2 ^f2 e3d c4  | 
w:   |   | 
z2 d2 _7/8e2 g2 ^f2 d2 e2 f2  | g4 d2 _7/8e4 dc d3/2^f/ ed  | \
w:   |   | 
d12 z4  | z2 d4 a2 g4 ^f4  | 
w:   |   | 
_7/8e3/2g/ ^fe d4 z2 e4 g2  | ^f2 g4 f2 g2 f2 g4  | \
w:   |   | 
z2 _7/8e4 d2 c3d e3d  | 
w:   | 
_7/8e4 a2 g2 ^f2 e2 e2 d2  | z2 d_7/8e ^f2 ed d3e dc c_1/4B  | \
w:   |   | 
c3_1/4B A3B c8  | 
w:   | 
z2 _7/8e6 e3d ed c2  | z2 d_7/8e ^f2 ed z2 cd e2 dc  | \
w:   |   | 
_1/4B4 A4 A3G B2 c2  | 
w:   | 
d2 _7/8e2 ^f2 g2 f2 ed dc c_1/4B  | \
w:   | 
c3_1/4B ^f2 _7/8ed e3d e4  | z2 a2 g2 ^f2 f3_7/8e e2 ed  | 
w:   |   | 
d8 d2 c'2 _b2 a2  | g2 g4 a2 _1/4b3a g4  | \
w:   |   | 
g6 ^f2 z2 f4 _7/8ed  | z2 d_7/8e ^f2 ed d3e dc c_1/4B  | 
w:   |   | 
c3_1/4B A2 B2 c3B c2 d2  | c3_1/4B _7/8e2 dc c2 B4 A2  | \
w:   |   | 
A12 z4  | c4 d4 d6 z2  | 
w:   |   | 
c4 d4 z2 d2 _7/8e2 ^f2  | _7/8e2 d2 c2 _1/4B2 z2 de ^f2 ed  | \
w:   |   | 
c4 d4 d2 ^f2 _7/8e2 d2  | 
w:   | 
z2 d2 _7/8e2 ^f2 e2 d2 c2 _1/4B2  | \
w:   | 
c3_1/4B A4 A3G B2 c2  | d4 _7/8e2 ^f2 e3d c4  | 
w:   |   | 
z2 d2 _7/8e2 g2 ^f2 d2 e2 f2  | g4 d2 _7/8e4 dc d3/2^f/ ed  | \
w:   |   | 
d12 z4  | z2 d4 a2 g4 ^f4  | 
w:   |   | 
_7/8e3/2g/ ^fe d4 z2 e4 g2  | ^f2 g4 f2 g2 f2 g4  | \
w:   |   | 
z2 _7/8e4 d2 c3d e3d  | 
w:   | 
_7/8e4 a2 g2 ^f2 e2 e2 d2  | z2 d_7/8e ^f2 ed d3e dc c_1/4B  | \
w:   |   | 
c3_1/4B A3B c8  | 
w:   | 
z2 _7/8e6 e3d ed c2  | z2 d_7/8e ^f2 ed z2 cd e2 dc  | \
w:   |   | 
_1/4B4 A4 A3G B2 c2  | 
w:   | 
d2 _7/8e2 ^f2 g2 f2 ed dc c_1/4B  | \
w:   | 
c3_1/4B ^f2 _7/8ed e3d e4  | z2 a2 g2 ^f2 f3_7/8e e2 ed  | 
w:   |   | 
d8 d2 c'2 _b2 a2  | g2 g4 a2 _1/4b3a g4  | \
w:   |   | 
g6 ^f2 z2 f4 _7/8ed  | z2 d_7/8e ^f2 ed d3e dc c_1/4B  | 
w:   |   | 
c3_1/4B A2 B2 c3B c2 d2  | c3_1/4B _7/8e2 dc c2 B4 A2  | \
w:   |   | 
A12 z4  | G4 c4 c6 z2  | 
w:   |   | 
G4 c4 c6 =f2  | =e2 ^d2 e2 =f2 g2 a2 g2 f2  | \
w:   |   | 
=e2 d2 c2 =B2 c6 z2  | =B3c A3B G3A ^9/8F3G  | 
w:   |   | 
G6 z2 G4 G2 G2  | G3A =F3G _7/8E3F G3^9/8F  | \
w:   |   | 
G4 z4 G2 A=B c2 BA  | 
w:   | 
G4 Ac _1/4BA G3^9/8F _7/8E2 FG  | \
w:   | 
^F2 G4 c2 c8  | z2 c4 d2 _7/8e4 d4  | \
w:   |   | 
c2 _1/4B2 c4 z2 c4 d2  | 
w:   | 
d2 _7/8e4 d2 e2 d2 e4  | z2 _7/8e4 d2 c3d e3d  | \
w:   |   | 
_7/8e4 a2 g2 ^f2 e2 e2 d2  | z2 d_7/8e ^f2 ed d3e dc c_1/4B  | 
w:   |   | 
c3_1/4B A3B c8  | z2 _7/8e6 e3d ed c2  | \
w:   |   | 
z2 d_7/8e ^f2 ed z2 cd e2 dc  | 
w:   | 
_1/4B4 A4 A3G B2 c2  | d2 _7/8e2 ^f2 g2 f2 ed dc c_1/4B  | \
w:   |   | 
c3_1/4B ^f2 _7/8ed e3d e4  | 
w:   | 
z2 a2 g2 ^f2 f3_7/8e e2 ed  | d8 d2 c'2 _b2 a2  | \
w:   |   | 
g2 g4 a2 _b3a g4  | g6 ^f2 z2 f4 _7/8ed  | 
w:   |   | 
z2 d_7/8e ^f2 ed d3e dc c_1/4B  | \
w:   | 
c3_1/4B A2 B2 c3B c2 d2  | c3_1/4B _7/8e2 dc c2 B4 A2  | 
w:   |   | 
A12 z4  | c4 d4 d6 z2  | |


